**harm	**harte	**silbe	**rhyme	**timestamp	**phrase	**leadinstrument	**kern
*M4/4	*M4/4	*	*	*	*	*	*
*	*	*	*	*	*	*	*
*	*	*	*	*	*	*	*
*C:	*C:	*	*	*	*	*	*C:
*	*	*	*	*	*	*	*
*	*	*	*	*	*	*	*
1r;	N	.	.	0	.	r	2r;
*>Letter>A	*>Letter>A	*>Letter>A	*>Letter>A	*>Letter>A	*>Letter>A	*>Letter>A	*>Letter>A
*>Label>Verse	*>Label>Verse	*>Label>Verse	*>Label>Verse	*>Label>Verse	*>Label>Verse	*>Label>Verse	*>Label>Verse
.	.	.	.	.	.	.	.
.	.	.	.	.	.	.	.
.	.	Have	.	.	.	.	.
.	.	you	.	.	.	.	.
=1	=1	=1	=1	=1	=1	=1	=1
1I	C:maj	e-	.	0.564	newline	voice	1C 1e 1g
.	.	-ver	.	.	.	.	.
.	.	met	.	.	.	.	.
.	.	a	.	.	.	.	.
.	.	girl	.	.	.	.	.
.	.	that	.	.	.	.	.
.	.	you	.	.	.	.	.
.	.	tried	.	.	.	.	.
.	.	to	.	.	.	.	.
.	.	date	A	.	.	.	.
.	.	.	.	.	.	.	.
.	.	but	.	.	.	.	.
.	.	a	.	.	.	.	.
=2	=2	=2	=2	=2	=2	=2	=2
1IV	F:maj	year	.	3.407	.	voice	1F 1a 1cc
.	.	to	.	.	.	.	.
.	.	make	.	.	.	.	.
.	.	love,	.	.	.	.	.
.	.	she	.	.	.	.	.
.	.	wan-	.	.	.	.	.
.	.	-ted	.	.	.	.	.
.	.	you	.	.	.	.	.
.	.	to	.	.	.	.	.
.	.	wait	A	.	.	.	.
.	.	.	.	.	.	.	.
=3	=3	=3	=3	=3	=3	=3	=3
1iib	D:min/b3	Let	.	6.25	.	voice	1d 1F 1a
.	.	me	.	.	.	.	.
.	.	tell	.	.	.	.	.
.	.	ya	.	.	.	.	.
.	.	a	.	.	.	.	.
.	.	sto-	.	.	.	.	.
.	.	-ry	.	.	.	.	.
.	.	of	.	.	.	.	.
.	.	my	.	.	.	.	.
.	.	_	.	.	.	.	.
.	.	si-	.	.	.	.	.
.	.	-tu-	.	.	.	.	.
.	.	-a	(B	.	.	.	.
.	.	_	.	.	.	.	.
.	.	tion,	b)	.	.	.	.
.	.	I	.	.	.	.	.
.	.	was	.	.	.	.	.
=4	=4	=4	=4	=4	=4	=4	=4
2iib	D:min/b3	tal-	.	9.092	.	voice	2d 2F 2a
.	.	-kin'	.	.	.	.	.
.	.	to	.	.	.	.	.
.	.	this	.	.	.	.	.
.	.	girl	.	.	.	.	.
.	.	.	.	.	.	.	.
.	.	from	.	.	.	.	.
.	.	the	.	.	.	.	.
2V7	G:7	U-	.	10.514	.	voice	2G 2b 2dd 2ff
.	.	-S	.	.	.	.	.
.	.	na	(B	.	.	.	.
.	.	_	.	.	.	.	.
.	.	tion	b)	.	.	.	.
.	.	.	.	.	.	.	.
.	.	The	.	.	.	.	.
=5	=5	=5	=5	=5	=5	=5	=5
1I	C:maj	way	.	11.935	newline	voice	1C 1e 1g
.	.	that	.	.	.	.	.
.	.	I	.	.	.	.	.
.	.	met	.	.	.	.	.
.	.	_	.	.	.	.	.
.	.	her	.	.	.	.	.
.	.	was	.	.	.	.	.
.	.	on	.	.	.	.	.
.	.	tour	C	.	.	.	.
.	.	at	.	.	.	.	.
.	.	a	.	.	.	.	.
.	.	con	.	.	.	.	.
.	.	_	.	.	.	.	.
.	.	cert	D	.	.	.	.
.	.	.	.	.	.	.	.
.	.	she	.	.	.	.	.
=6	=6	=6	=6	=6	=6	=6	=6
1IV	F:maj	had	.	14.741	.	voice	1F 1a 1cc
.	.	long	.	.	.	.	.
.	.	hair	.	.	.	.	.
.	.	and	.	.	.	.	.
.	.	a	.	.	.	.	.
.	.	short	C	.	.	.	.
.	.	.	.	.	.	.	.
.	.	mi-	.	.	.	.	.
.	.	-ni-	.	.	.	.	.
.	.	-skirt	D	.	.	.	.
.	.	.	.	.	.	.	.
.	.	I	.	.	.	.	.
=7	=7	=7	=7	=7	=7	=7	=7
1iib	D:min/b3	just	.	17.546	.	voice	1d 1F 1a
.	.	got	.	.	.	.	.
.	.	on	.	.	.	.	.
.	.	stage,	.	.	.	.	.
.	.	drip-	.	.	.	.	.
.	.	-pin',	.	.	.	.	.
.	.	pour-	.	.	.	.	.
.	.	-in'	.	.	.	.	.
.	.	with	.	.	.	.	.
.	.	sweat	E	.	.	.	.
.	.	_	.	.	.	.	.
.	.	.	.	.	.	.	.
.	.	I	.	.	.	.	.
.	.	was	.	.	.	.	.
=8	=8	=8	=8	=8	=8	=8	=8
2iib	D:min/b3	wal-	.	20.352	.	voice	2d 2F 2a
.	.	-kin'	.	.	.	.	.
.	.	through	.	.	.	.	.
.	.	the	.	.	.	.	.
.	.	crowd	.	.	.	.	.
.	.	.	.	.	.	.	.
.	.	and	.	.	.	.	.
2V7	G:7	guess	.	21.755	.	voice	2G 2b 2dd 2ff
.	.	who	.	.	.	.	.
.	.	I	.	.	.	.	.
.	.	met	E	.	.	.	.
.	.	.	.	.	.	.	.
.	.	.	.	.	.	.	.
.	.	I	.	.	.	.	.
=9	=9	=9	=9	=9	=9	=9	=9
1I	C:maj	whis-	.	23.157	newline	voice	1C 1e 1g
.	.	-pered	.	.	.	.	.
.	.	in	.	.	.	.	.
.	.	her	.	.	.	.	.
.	.	ear,	.	.	.	.	.
.	.	"come	.	.	.	.	.
.	.	16G	to	.	.	.	.	.
.	.	16G	the	.	.	.	.	.
.	.	16G	pic-	.	.	.	.	.
.	.	16G	-ture	.	.	.	.	.
.	.	16G	booth	F	.	.	.	.
.	.	16G	so	.	.	.	.	.
.	.	16G	I	.	.	.	.	.
.	.	16G	can	.	.	.	.	.
=10	=10	=10	=10	=10	=10	=10	=10	=10
1IV	F:maj	16G	ask	.	25.976	.	voice	1F 1a 1cc
.	.	16G	you	.	.	.	.	.
.	.	16G	some	.	.	.	.	.
.	.	16G	ques-	.	.	.	.	.
.	.	16G	-tions	.	.	.	.	.
.	.	16G	to	.	.	.	.	.
.	.	24G	see	.	.	.	.	.
.	.	24G	if	.	.	.	.	.
.	.	24G	you	.	.	.	.	.
.	.	8r	.	.	.	.	.	.
.	.	16B	hun-	.	.	.	.	.
.	.	16G	-dred	.	.	.	.	.
.	.	8B	proof"	F	.	.	.	.
.	.	.	.	.	.	.	.
.	.	I	.	.	.	.	.
=11	=11	=11	=11	=11	=11	=11	=11
1iib	D:min/b3	asked	.	28.795	.	voice	1d 1F 1a
.	.	her	.	.	.	.	.
.	.	her	.	.	.	.	.
.	.	name,	.	.	.	.	.
.	.	she	.	.	.	.	.
.	.	said	.	.	.	.	.
.	.	"blah	G	.	.	.	.
.	.	8A	blah	G	.	.	.	.
.	.	[16G	blah"	G	.	.	.	.
.	.	_	.	.	.	.	.
.	.	she	.	.	.	.	.
.	.	had	.	.	.	.	.
=12	=12	=12	=12	=12	=12	=12	=12
2iib	D:min/b3	9-	.	31.614	.	voice	2d 2F 2a
.	.	-10	.	.	.	.	.
.	.	pants	.	.	.	.	.
.	.	and	.	.	.	.	.
.	.	a	.	.	.	.	.
2V7	G:7	ve-	.	33.023	.	voice	2G 2b 2dd 2ff
.	.	-ry	.	.	.	.	.
.	.	big	.	.	.	.	.
.	.	bra	G	.	.	.	.
.	.	.	.	.	.	.	.
.	.	I	.	.	.	.	.
=13	=13	=13	=13	=13	=13	=13	=13
1I	C:maj	took	.	34.433	newline	voice	1C 1e 1g
.	.	a	.	.	.	.	.
.	.	cou-	.	.	.	.	.
.	.	-ple	.	.	.	.	.
.	.	of	.	.	.	.	.
.	.	flicks,	.	.	.	.	.
.	.	and	.	.	.	.	.
.	.	she	.	.	.	.	.
.	.	was	.	.	.	.	.
.	.	en-	.	.	.	.	.
.	.	-thused,	H	.	.	.	.
.	.	_	.	.	.	.	.
.	.	I	.	.	.	.	.
.	.	said,	.	.	.	.	.
=14	=14	=14	=14	=14	=14	=14	=14
1IV	F:maj	"how	.	37.25	.	voice	1F 1a 1cc
.	.	24A	do	.	.	.	.	.
.	.	24A	you	.	.	.	.	.
.	.	16A	like	.	.	.	.	.
.	.	16A	the	.	.	.	.	.
.	.	16A	show?"	.	.	.	.	1.
.	.	She	.	.	.	.	.
.	.	said,	.	.	.	.	.
.	.	"I	.	.	.	.	.
.	.	16A	was	.	.	.	.	.
.	.	16A	ve-	.	.	.	.	.
.	.	16A	-ry	.	.	.	.	.
.	.	16G	a-	.	.	.	.	.
.	.	8G	-mused	H	.	.	.	.
.	.	16r	.	.	.	.	.	.
.	.	16A	I	.	.	.	.	.
=15	=15	=15	=15	=15	=15	=15	=15	=15
1iib	D:min/b3	16A	star-	.	40.067	.	voice	1d 1F 1a
.	.	16A	-ted	.	.	.	.	.
.	.	16A	thro-	.	.	.	.	.
.	.	16G	-win'	.	.	.	.	.
.	.	16G	bass,	I	.	.	.	.
.	.	16A	she	.	.	.	.	.
.	.	16A	star-	.	.	.	.	.
.	.	16A	-ted	.	.	.	.	.
.	.	16A	thro-	.	.	.	.	.
.	.	16A	-win'	.	.	.	.	.
.	.	16G	back	.	.	.	.	.
.	.	[16A	mid	.	.	.	.	.
.	.	16A]	_	.	.	.	.	.
.	.	8A	range,	I	.	.	.	.
.	.	16A	but	.	.	.	.	.
=16	=16	=16	=16	=16	=16	=16	=16	=16
2iib	D:min/b3	16A	when	.	42.884	.	voice	2d 2F 2a
.	.	16A	I	.	.	.	.	.
.	.	16A	sprung	.	.	.	.	.
.	.	16A	the	.	.	.	.	.
.	.	16B	ques-	.	.	.	.	.
.	.	16B	-tion	.	.	.	.	.
.	.	16r	.	.	.	.	.	.
.	.	16B	she	.	.	.	.	.
2V7	G:7	16B	ac-	.	44.292	.	voice	2G 2b 2dd 2ff
.	.	16A	-ted	.	.	.	.	.
.	.	16A	kind	.	.	.	.	.
.	.	16G	of	.	.	.	.	.
.	.	8A	strange	I	.	.	.	.
.	.	8r	.	.	.	.	.	.
=17	=17	=17	=17	=17	=17	=17	=17	=17
1I	C:maj	24c	Then	.	45.701	newline	voice	1C 1e 1g
.	.	24c	when	.	.	.	.	.
.	.	24c	I	.	.	.	.	.
.	.	8A	asked	.	.	.	.	.
.	.	16A	do"	.	.	.	.	.
.	.	you	.	.	.	.	.
.	.	have	.	.	.	.	.
.	.	a	.	.	.	.	.
.	.	"man?"""	.	.	.	.	.
.	.	she	.	.	.	.	.
.	.	tried	.	.	.	.	.
.	.	to	.	.	.	.	.
.	.	pre-	.	.	.	.	.
.	.	-tend,	J	.	.	.	.
.	.	she	.	.	.	.	.
=18	=18	=18	=18	=18	=18	=18	=18
1IV	F:maj	said,	.	48.511	.	voice	1F 1a 1cc
.	.	"no,	.	.	.	.	.
.	.	[16G	I	.	.	.	.	.
.	.	16G]	_	.	.	.	.	.
.	.	16A	don't	.	.	.	.	.
.	.	16r	.	.	.	.	.	.
.	.	16G	I	.	.	.	.	.
.	.	16A	on-	.	.	.	.	.
.	.	16G	-ly	.	.	.	.	.
.	.	16F	have	.	.	.	.	.
.	.	[16F	a	.	.	.	.	.
.	.	16F]	_	.	.	.	.	.
.	.	8.G	friend."	J	.	.	.	.
=19	=19	=19	=19	=19	=19	=19	=19
1iib	D:min/b3	.	.	51.32	.	voice	1d 1F 1a
.	.	.	.	.	.	.	.
.	.	_	.	.	.	.	.
.	.	Come	.	.	.	.	.
.	.	on!	.	.	.	.	.
.	.	.	.	.	.	.	.
.	.	I'm	.	.	.	.	.
.	.	not	.	.	.	.	.
.	.	e-	.	.	.	.	.
=20	=20	=20	=20	=20	=20	=20	=20
2iib	D:min/b3	-ven	.	54.13	.	voice	2d 2F 2a
.	.	go-	.	.	.	.	.
.	.	-in'	.	.	.	.	.
.	.	for	.	.	.	.	.
.	.	it	.	.	.	.	.
.	.	.	.	.	.	.	.
.	.	this	.	.	.	.	.
2V7	G:7	what	.	55.535	.	voice	2G 2b 2dd 2ff
.	.	I'm	.	.	.	.	.
.	.	gon-	.	.	.	.	.
.	.	-na	.	.	.	.	.
.	.	sing	.	.	.	.	.
.	.	.	.	.	.	.	.
=21	=21	=21	=21	=21	=21	=21	=21
*>Letter>B	*>Letter>B	*>Letter>B	*>Letter>B	*>Letter>B	*>Letter>B	*>Letter>B	*>Letter>B
*>Label>Chorus	*>Label>Chorus	*>Label>Chorus	*>Label>Chorus	*>Label>Chorus	*>Label>Chorus	*>Label>Chorus	*>Label>Chorus
1I	C:maj	You!	.	56.94	newline	voice	1C 1e 1g
.	.	.	.	.	.	.	.
.	.	.	.	.	.	.	.
.	.	You	.	.	.	.	.
.	.	got	.	.	.	.	.
.	.	.	.	.	.	.	.
.	.	what	.	.	.	.	.
.	.	I	.	.	.	.	.
=22	=22	=22	=22	=22	=22	=22	=22
1IV	F:maj	_	.	59.759	.	voice	1F 1a 1cc
.	.	need	.	.	.	.	.
.	.	_	.	.	.	.	.
.	.	.	.	.	.	.	.
.	.	.	.	.	.	.	.
.	.	But	.	.	.	.	.
.	.	you	.	.	.	.	.
=23	=23	=23	=23	=23	=23	=23	=23
1iib	D:min/b3	say	.	62.578	.	voice	1d 1F 1a
.	.	he's	.	.	.	.	.
.	.	just	.	.	.	.	.
.	.	a	.	.	.	.	.
.	.	friend	.	.	.	.	.
.	.	_	.	.	.	.	.
.	.	.	.	.	.	.	.
.	.	.	.	.	.	.	.
.	.	and	.	.	.	.	.
.	.	you	.	.	.	.	.
=24	=24	=24	=24	=24	=24	=24	=24
2iib	D:min/b3	say	.	65.397	.	voice	2d 2F 2a
.	.	he's	.	.	.	.	.
.	.	just	.	.	.	.	.
.	.	a	.	.	.	.	.
.	.	friend	.	.	.	.	.
2V7	G:7	.	.	66.806	.	voice	2G 2b 2dd 2ff
.	.	oh	.	.	.	.	.
.	.	ba-	.	.	.	.	.
.	.	-by,	.	.	.	.	.
=25	=25	=25	=25	=25	=25	=25	=25
1I	C:maj	you	.	68.216	newline	voice	1C 1e 1g
.	.	.	.	.	.	.	.
.	.	.	.	.	.	.	.
.	.	Got	.	.	.	.	.
.	.	_	.	.	.	.	.
.	.	what	.	.	.	.	.
.	.	I	.	.	.	.	.
=26	=26	=26	=26	=26	=26	=26	=26
1IV	F:maj	_	.	71.027	.	voice	1F 1a 1cc
.	.	_	.	.	.	.	.
.	.	_	.	.	.	.	.
.	.	.	.	.	.	.	.
.	.	.	.	.	.	.	.
.	.	and	.	.	.	.	.
.	.	you	.	.	.	.	.
=27	=27	=27	=27	=27	=27	=27	=27
1iib	D:min/b3	say	.	73.838	.	voice	1d 1F 1a
.	.	he's	.	.	.	.	.
.	.	just	.	.	.	.	.
.	.	a	.	.	.	.	.
.	.	friend	.	.	.	.	.
.	.	_	.	.	.	.	.
.	.	.	.	.	.	.	.
.	.	.	.	.	.	.	.
.	.	and	.	.	.	.	.
.	.	you	.	.	.	.	.
=28	=28	=28	=28	=28	=28	=28	=28
2iib	D:min/b3	say	.	76.649	.	voice	2d 2F 2a
.	.	he's	.	.	.	.	.
.	.	just	.	.	.	.	.
.	.	a	.	.	.	.	.
.	.	friend	.	.	.	.	.
2V7	G:7	.	.	78.054	.	voice	2G 2b 2dd 2ff
.	.	oh,	.	.	.	.	.
.	.	_	.	.	.	.	.
.	.	ba	.	.	.	.	.
=29	=29	=29	=29	=29	=29	=29	=29
1I	C:maj	_	.	79.459	newline	voice	1C 1e 1g
.	.	by,	.	.	.	.	.
.	.	you	.	.	.	.	.
.	.	.	.	.	.	.	.
.	.	.	.	.	.	.	.
.	.	Got	.	.	.	.	.
.	.	_	.	.	.	.	.
.	.	what	.	.	.	.	.
.	.	I	.	.	.	.	.
=30	=30	=30	=30	=30	=30	=30	=30
1IV	F:maj	_	.	82.279	.	voice	1F 1a 1cc
.	.	need	.	.	.	.	.
.	.	_	.	.	.	.	.
.	.	.	.	.	.	.	.
.	.	.	.	.	.	.	.
.	.	But	.	.	.	.	.
.	.	you	.	.	.	.	.
=31	=31	=31	=31	=31	=31	=31	=31
1iib	D:min/b3	say	.	85.099	.	voice	1d 1F 1a
.	.	he's	.	.	.	.	.
.	.	just	.	.	.	.	.
.	.	a	.	.	.	.	.
.	.	friend	.	.	.	.	.
.	.	_	.	.	.	.	.
.	.	.	.	.	.	.	.
.	.	.	.	.	.	.	.
.	.	and	.	.	.	.	.
.	.	you	.	.	.	.	.
=32	=32	=32	=32	=32	=32	=32	=32
2iib	D:min/b3	say	.	87.919	.	voice	2d 2F 2a
.	.	he's	.	.	.	.	.
.	.	just	.	.	.	.	.
.	.	a	.	.	.	.	.
2V7	G:7	friend	.	89.329	.	voice	2G 2b 2dd 2ff
.	.	.	.	.	.	.	.
.	.	So	.	.	.	.	.
.	.	I	.	.	.	.	.
=33	=33	=33	=33	=33	=33	=33	=33
*>Letter>A	*>Letter>A	*>Letter>A	*>Letter>A	*>Letter>A	*>Letter>A	*>Letter>A	*>Letter>A
*>Label>Verse	*>Label>Verse	*>Label>Verse	*>Label>Verse	*>Label>Verse	*>Label>Verse	*>Label>Verse	*>Label>Verse
1I	C:maj	took	.	90.739	newline	voice	1C 1e 1g
.	.	blah-	.	.	.	.	.
.	.	-blah's	.	.	.	.	.
.	.	word	.	.	.	.	.
.	.	.	.	.	.	.	.
.	.	for	.	.	.	.	.
.	.	it	.	.	.	.	.
.	.	at	.	.	.	.	.
.	.	this	.	.	.	.	.
.	.	time,	K	.	.	.	.
.	.	_	.	.	.	.	.
.	.	I	.	.	.	.	.
.	.	thought	.	.	.	.	.
=34	=34	=34	=34	=34	=34	=34	=34
1IV	F:maj	just	.	93.548	.	voice	1F 1a 1cc
.	.	ha-	.	.	.	.	.
.	.	-vin'	.	.	.	.	.
.	.	a	.	.	.	.	.
.	.	friend	.	.	.	.	.
.	.	.	.	.	.	.	.
.	.	could-	.	.	.	.	.
.	.	-n't	.	.	.	.	.
.	.	be	.	.	.	.	.
.	.	no	.	.	.	.	.
.	.	crime	K	.	.	.	.
.	.	_	.	.	.	.	.
.	.	.	.	.	.	.	.
.	.	Cuz	.	.	.	.	.
=35	=35	=35	=35	=35	=35	=35	=35
1iib	D:min/b3	I	.	96.356	.	voice	1d 1F 1a
.	.	have	.	.	.	.	.
.	.	friends	.	.	.	.	.
.	.	_	.	.	.	.	.
.	.	.	.	.	.	.	.
.	.	and	.	.	.	.	.
.	.	that's	.	.	.	.	.
.	.	a	.	.	.	.	.
.	.	fact,	L	.	.	.	.
.	.	_	.	.	.	.	.
.	.	like	.	.	.	.	.
=36	=36	=36	=36	=36	=36	=36	=36
2iib	D:min/b3	Ag-	.	99.164	.	voice	2d 2F 2a
.	.	-nes,	.	.	.	.	.
.	.	A-	.	.	.	.	.
.	.	-ga-	.	.	.	.	.
.	.	-tha,	.	.	.	.	.
.	.	Ger-	.	.	.	.	.
2V7	G:7	-maine	.	100.568	.	voice	2G 2b 2dd 2ff
.	.	and	.	.	.	.	.
.	.	Jack	L	.	.	.	.
.	.	_	.	.	.	.	.
.	.	.	.	.	.	.	.
.	.	.	.	.	.	.	.
.	.	For-	.	.	.	.	.
=37	=37	=37	=37	=37	=37	=37	=37
1I	C:maj	-get	.	101.972	newline	voice	1C 1e 1g
.	.	a-	.	.	.	.	.
.	.	-bout	.	.	.	.	.
.	.	that,	.	.	.	.	.
.	.	_	.	.	.	.	.
.	.	let's	.	.	.	.	.
.	.	go	.	.	.	.	.
.	.	in-	.	.	.	.	.
.	.	-to	.	.	.	.	.
.	.	the	.	.	.	.	.
.	.	sto-	(M	.	.	.	.
.	.	-ry	m)	.	.	.	.
.	.	.	.	.	.	.	.
.	.	a-	.	.	.	.	.
=38	=38	=38	=38	=38	=38	=38	=38
1IV	F:maj	-bout	.	104.791	.	voice	1F 1a 1cc
.	.	a	.	.	.	.	.
.	.	girl	.	.	.	.	.
.	.	named	.	.	.	.	.
.	.	"blah-	.	.	.	.	.
.	.	16A	-blah-	.	.	.	.	.
.	.	8A	-blah"	.	.	.	.	.
.	.	that	.	.	.	.	.
.	.	a-	.	.	.	.	.
.	.	-dored	(M	.	.	.	.
.	.	_	.	.	.	.	.
.	.	me	m)	.	.	.	.
.	.	.	.	.	.	.	.
.	.	.	.	.	.	.	.
=39	=39	=39	=39	=39	=39	=39	=39
1iib	D:min/b3	So	.	107.61	.	voice	1d 1F 1a
.	.	we	.	.	.	.	.
.	.	star-	.	.	.	.	.
.	.	-ted	.	.	.	.	.
.	.	tal-	.	.	.	.	.
.	.	-kin',	.	.	.	.	.
.	.	get-	.	.	.	.	.
.	.	-tin'	.	.	.	.	.
.	.	fa-	.	.	.	.	.
.	.	-mi	(N	.	.	.	.
.	.	_	.	.	.	.	.
.	.	liar	n)	.	.	.	.
.	.	.	.	.	.	.	.
=40	=40	=40	=40	=40	=40	=40	=40
2iib	D:min/b3	spen-	.	110.428	.	voice	2d 2F 2a
.	.	-din'	.	.	.	.	.
.	.	a	.	.	.	.	.
.	.	lot	.	.	.	.	.
.	.	of	.	.	.	.	.
.	.	time	.	.	.	.	.
.	.	.	.	.	.	.	.
.	.	so	.	.	.	.	.
2V7	G:7	we	.	111.838	.	voice	2G 2b 2dd 2ff
.	.	can	.	.	.	.	.
.	.	build	(N	.	.	.	.
.	.	_	.	.	.	.	.
.	.	a	n)	.	.	.	.
.	.	re-	.	.	.	.	.
=41	=41	=41	=41	=41	=41	=41	=41
1I	C:maj	-la-	.	113.247	newline	voice	1C 1e 1g
.	.	-tion-	.	.	.	.	.
.	.	-ship	.	.	.	.	.
.	.	.	.	.	.	.	.
.	.	or	.	.	.	.	.
.	.	some	.	.	.	.	.
.	.	un-	.	.	.	.	.
.	.	-der-	.	.	.	.	.
.	.	-stan	(O	.	.	.	.
.	.	_	.	.	.	.	.
.	.	ding,	o)	.	.	.	.
.	.	how	.	.	.	.	.
=42	=42	=42	=42	=42	=42	=42	=42
1IV	F:maj	it's	.	116.058	.	voice	1F 1a 1cc
.	.	gon-	.	.	.	.	.
.	.	-na	.	.	.	.	.
.	.	be	.	.	.	.	.
.	.	in	.	.	.	.	.
.	.	the	.	.	.	.	.
.	.	fu-	.	.	.	.	.
.	.	-ture	.	.	.	.	.
.	.	we	.	.	.	.	.
.	.	was	.	.	.	.	.
.	.	plan	(O	.	.	.	.
.	.	_	.	.	.	.	.
.	.	ning	o)	.	.	.	.
.	.	.	.	.	.	.	.
=43	=43	=43	=43	=43	=43	=43	=43
1iib	D:min/b3	Ev-	.	118.869	.	voice	1d 1F 1a
.	.	-'ry-	.	.	.	.	.
.	.	-thing	.	.	.	.	.
.	.	soun-	.	.	.	.	.
.	.	-ded	.	.	.	.	.
.	.	so	.	.	.	.	.
.	.	dan-	.	.	.	.	.
.	.	-dy	.	.	.	.	.
.	.	and	.	.	.	.	.
.	.	sweet	P	.	.	.	.
.	.	_	.	.	.	.	.
.	.	.	.	.	.	.	.
.	.	I	.	.	.	.	.
.	.	had	.	.	.	.	.
=44	=44	=44	=44	=44	=44	=44	=44
2iib	D:min/b3	no	.	121.68	.	voice	2d 2F 2a
.	.	i-	.	.	.	.	.
.	.	-de	.	.	.	.	.
.	.	_	.	.	.	.	.
.	.	a	.	.	.	.	.
.	.	I	.	.	.	.	.
.	.	was	.	.	.	.	.
2V7	G:7	in	.	123.086	.	voice	2G 2b 2dd 2ff
.	.	for	.	.	.	.	.
.	.	a	.	.	.	.	.
.	.	treat	P	.	.	.	.
.	.	_	.	.	.	.	.
.	.	.	.	.	.	.	.
.	.	Af-	.	.	.	.	.
.	.	-ter	.	.	.	.	.
=45	=45	=45	=45	=45	=45	=45	=45
1I	C:maj	this	.	124.491	newline	voice	1C 1e 1g
.	.	was	.	.	.	.	.
.	.	es-	.	.	.	.	.
.	.	-ta	.	.	.	.	.
.	.	_	.	.	.	.	.
.	.	blished,	.	.	.	.	.
.	.	ev-	.	.	.	.	.
.	.	-'ry-	.	.	.	.	.
.	.	-thing	.	.	.	.	.
.	.	was	.	.	.	.	.
.	.	cool	Q	.	.	.	.
.	.	_	.	.	.	.	.
.	.	.	.	.	.	.	.
.	.	the	.	.	.	.	.
=46	=46	=46	=46	=46	=46	=46	=46
1IV	F:maj	tour	.	127.305	.	voice	1F 1a 1cc
.	.	was	.	.	.	.	.
.	.	o	.	.	.	.	.
.	.	_	.	.	.	.	.
.	.	ver	.	.	.	.	.
.	.	and	.	.	.	.	.
.	.	she	.	.	.	.	.
.	.	went	.	.	.	.	.
.	.	back	.	.	.	.	.
.	.	to	.	.	.	.	.
.	.	school	Q	.	.	.	.
.	.	_	.	.	.	.	.
.	.	.	.	.	.	.	.
.	.	I	.	.	.	.	.
=47	=47	=47	=47	=47	=47	=47	=47
1iib	D:min/b3	called	.	130.118	.	voice	1d 1F 1a
.	.	ev-	.	.	.	.	.
.	.	-'ry	.	.	.	.	.
.	.	day	.	.	.	.	.
.	.	.	.	.	.	.	.
.	.	to	.	.	.	.	.
.	.	see	.	.	.	.	.
.	.	how	.	.	.	.	.
.	.	she	.	.	.	.	.
.	.	was	.	.	.	.	.
.	.	do-	(R	.	.	.	.
.	.	-in',	r)	.	.	.	.
.	.	ev-	.	.	.	.	.
.	.	-'ry	.	.	.	.	.
=48	=48	=48	=48	=48	=48	=48	=48
2iib	D:min/b3	time	.	132.932	.	voice	2d 2F 2a
.	.	that	.	.	.	.	.
.	.	I	.	.	.	.	.
.	.	called	.	.	.	.	.
.	.	_	.	.	.	.	.
.	.	her	.	.	.	.	.
.	.	.	.	.	.	.	.
.	.	it	.	.	.	.	.
2V7	G:7	seemed	.	134.338	.	voice	2G 2b 2dd 2ff
.	.	some-	.	.	.	.	.
.	.	-thing	.	.	.	.	.
.	.	was	.	.	.	.	.
.	.	brew-	(R	.	.	.	.
.	.	-ing	r)	.	.	.	.
.	.	.	.	.	.	.	.
.	.	I	.	.	.	.	.
=49	=49	=49	=49	=49	=49	=49	=49
1I	C:maj	called	.	135.745	newline	voice	1C 1e 1g
.	.	her	.	.	.	.	.
.	.	room,	.	.	.	.	.
.	.	a	.	.	.	.	.
.	.	guy	.	.	.	.	.
.	.	picked	.	.	.	.	.
.	.	up,	.	.	.	.	.
.	.	but	.	.	.	.	.
.	.	then	.	.	.	.	.
.	.	I	.	.	.	.	.
.	.	called	.	.	.	.	.
.	.	a-	.	.	.	.	.
.	.	-gain,	J	.	.	.	.
.	.	I	.	.	.	.	.
.	.	say,	.	.	.	.	.
=50	=50	=50	=50	=50	=50	=50	=50
1IV	F:maj	"yo,	.	138.555	.	voice	1F 1a 1cc
.	.	16r	.	.	.	.	.	.
.	.	16dd	who	.	.	.	.	.
.	.	16b	was	.	.	.	.	.
.	.	8a	that	.	.	.	.	.
.	.	8r	.	.	.	.	.	.
.	.	8A	Oh,"	.	.	.	.	1.
.	.	he's	.	.	.	.	.
.	.	just	.	.	.	.	.
.	.	a	.	.	.	.	.
=51	=51	=51	=51	=51	=51	=51	=51
1iib	D:min/b3	"friend."""	J	141.364	.	voice	1d 1F 1a
.	.	.	.	.	.	.	.
.	.	(sucksteeth)	.	.	.	.	.
.	.	Don't	.	.	.	.	.
.	.	gim-	.	.	.	.	.
.	.	-me	.	.	.	.	.
.	.	that	.	.	.	.	.
.	.	.	.	.	.	.	.
=52	=52	=52	=52	=52	=52	=52	=52
2iib	D:min/b3	.	.	144.174	.	voice	2d 2F 2a
.	.	Don't	.	.	.	.	.
.	.	e-	.	.	.	.	.
.	.	-ven	.	.	.	.	.
.	.	gim-	.	.	.	.	.
.	.	-me	.	.	.	.	.
.	.	that!	.	.	.	.	.
2V7	G:7	.	.	145.579	.	voice	2G 2b 2dd 2ff
.	.	Jus'	.	.	.	.	.
.	.	bust	.	.	.	.	.
.	.	this	.	.	.	.	.
.	.	.	.	.	.	.	.
=53	=53	=53	=53	=53	=53	=53	=53
*>Letter>B	*>Letter>B	*>Letter>B	*>Letter>B	*>Letter>B	*>Letter>B	*>Letter>B	*>Letter>B
*>Label>Chorus	*>Label>Chorus	*>Label>Chorus	*>Label>Chorus	*>Label>Chorus	*>Label>Chorus	*>Label>Chorus	*>Label>Chorus
1I	C:maj	You!	.	146.984	newline	voice	1C 1e 1g
.	.	.	.	.	.	.	.
.	.	.	.	.	.	.	.
.	.	You	.	.	.	.	.
.	.	got	.	.	.	.	.
.	.	.	.	.	.	.	.
.	.	what	.	.	.	.	.
.	.	I	.	.	.	.	.
=54	=54	=54	=54	=54	=54	=54	=54
1IV	F:maj	_	.	149.799	.	voice	1F 1a 1cc
.	.	need	.	.	.	.	.
.	.	_	.	.	.	.	.
.	.	.	.	.	.	.	.
.	.	.	.	.	.	.	.
.	.	But	.	.	.	.	.
.	.	you	.	.	.	.	.
=55	=55	=55	=55	=55	=55	=55	=55
1iib	D:min/b3	say	.	152.613	.	voice	1d 1F 1a
.	.	he's	.	.	.	.	.
.	.	just	.	.	.	.	.
.	.	a	.	.	.	.	.
.	.	friend	.	.	.	.	.
.	.	_	.	.	.	.	.
.	.	.	.	.	.	.	.
.	.	.	.	.	.	.	.
.	.	and	.	.	.	.	.
.	.	you	.	.	.	.	.
=56	=56	=56	=56	=56	=56	=56	=56
2iib	D:min/b3	say	.	155.428	.	voice	2d 2F 2a
.	.	he's	.	.	.	.	.
.	.	just	.	.	.	.	.
.	.	a	.	.	.	.	.
.	.	friend	.	.	.	.	.
2V7	G:7	.	.	156.835	.	voice	2G 2b 2dd 2ff
.	.	oh	.	.	.	.	.
.	.	ba-	.	.	.	.	.
.	.	-by,	.	.	.	.	.
=57	=57	=57	=57	=57	=57	=57	=57
1I	C:maj	you	.	158.243	newline	voice	1C 1e 1g
.	.	.	.	.	.	.	.
.	.	.	.	.	.	.	.
.	.	Got	.	.	.	.	.
.	.	_	.	.	.	.	.
.	.	what	.	.	.	.	.
.	.	I	.	.	.	.	.
=58	=58	=58	=58	=58	=58	=58	=58
1IV	F:maj	_	.	161.059	.	voice	1F 1a 1cc
.	.	_	.	.	.	.	.
.	.	_	.	.	.	.	.
.	.	.	.	.	.	.	.
.	.	.	.	.	.	.	.
.	.	and	.	.	.	.	.
.	.	you	.	.	.	.	.
=59	=59	=59	=59	=59	=59	=59	=59
1iib	D:min/b3	say	.	163.875	.	voice	1d 1F 1a
.	.	he's	.	.	.	.	.
.	.	just	.	.	.	.	.
.	.	a	.	.	.	.	.
.	.	friend	.	.	.	.	.
.	.	_	.	.	.	.	.
.	.	.	.	.	.	.	.
.	.	.	.	.	.	.	.
.	.	and	.	.	.	.	.
.	.	you	.	.	.	.	.
=60	=60	=60	=60	=60	=60	=60	=60
2iib	D:min/b3	say	.	166.69	.	voice	2d 2F 2a
.	.	he's	.	.	.	.	.
.	.	just	.	.	.	.	.
.	.	a	.	.	.	.	.
.	.	friend	.	.	.	.	.
2V7	G:7	.	.	168.098	.	voice	2G 2b 2dd 2ff
.	.	oh,	.	.	.	.	.
.	.	_	.	.	.	.	.
.	.	ba	.	.	.	.	.
=61	=61	=61	=61	=61	=61	=61	=61
1I	C:maj	_	.	169.506	newline	voice	1C 1e 1g
.	.	by,	.	.	.	.	.
.	.	you	.	.	.	.	.
.	.	.	.	.	.	.	.
.	.	.	.	.	.	.	.
.	.	Got	.	.	.	.	.
.	.	_	.	.	.	.	.
.	.	what	.	.	.	.	.
.	.	I	.	.	.	.	.
=62	=62	=62	=62	=62	=62	=62	=62
1IV	F:maj	_	.	172.324	.	voice	1F 1a 1cc
.	.	need	.	.	.	.	.
.	.	_	.	.	.	.	.
.	.	.	.	.	.	.	.
.	.	.	.	.	.	.	.
.	.	But	.	.	.	.	.
.	.	you	.	.	.	.	.
=63	=63	=63	=63	=63	=63	=63	=63
1iib	D:min/b3	say	.	175.142	.	voice	1d 1F 1a
.	.	he's	.	.	.	.	.
.	.	just	.	.	.	.	.
.	.	a	.	.	.	.	.
.	.	friend	.	.	.	.	.
.	.	_	.	.	.	.	.
.	.	.	.	.	.	.	.
.	.	.	.	.	.	.	.
.	.	and	.	.	.	.	.
.	.	you	.	.	.	.	.
=64	=64	=64	=64	=64	=64	=64	=64
2iib	D:min/b3	say	.	177.96	.	voice	2d 2F 2a
.	.	he's	.	.	.	.	.
.	.	just	.	.	.	.	.
.	.	a	.	.	.	.	.
2V7	G:7	friend	.	179.369	.	voice	2G 2b 2dd 2ff
.	.	.	.	.	.	.	.
.	.	So	.	.	.	.	.
.	.	I	.	.	.	.	.
=65	=65	=65	=65	=65	=65	=65	=65
*>Letter>A	*>Letter>A	*>Letter>A	*>Letter>A	*>Letter>A	*>Letter>A	*>Letter>A	*>Letter>A
*>Label>Verse	*>Label>Verse	*>Label>Verse	*>Label>Verse	*>Label>Verse	*>Label>Verse	*>Label>Verse	*>Label>Verse
1I	C:maj	came	.	180.778	newline	voice	1C 1e 1g
.	.	to	.	.	.	.	.
.	.	her	.	.	.	.	.
.	.	col	.	.	.	.	.
.	.	_	.	.	.	.	.
.	.	lege	.	.	.	.	.
.	.	on	.	.	.	.	.
.	.	a	.	.	.	.	.
.	.	sur-	.	.	.	.	.
.	.	-prise	.	.	.	.	.
.	.	vi	(S	.	.	.	.
.	.	_	.	.	.	.	.
.	.	sit	s)	.	.	.	.
.	.	.	.	.	.	.	.
.	.	to	.	.	.	.	.
=66	=66	=66	=66	=66	=66	=66	=66
1IV	F:maj	see	.	183.58	.	voice	1F 1a 1cc
.	.	my	.	.	.	.	.
.	.	girl,	.	.	.	.	.
.	.	that	.	.	.	.	.
.	.	was	.	.	.	.	.
.	.	so	.	.	.	.	.
.	.	ex-	.	.	.	.	.
.	.	-qui	(S	.	.	.	.
.	.	_	.	.	.	.	.
.	.	site	s)	.	.	.	.
.	.	.	.	.	.	.	.
.	.	It	.	.	.	.	.
=67	=67	=67	=67	=67	=67	=67	=67
1iib	D:min/b3	was	.	186.382	.	voice	1d 1F 1a
.	.	a	.	.	.	.	.
.	.	school	.	.	.	.	.
.	.	day	.	.	.	.	.
.	.	.	.	.	.	.	.
.	.	I	.	.	.	.	.
.	.	knew	T	.	.	.	.
.	.	she	.	.	.	.	.
.	.	was	.	.	.	.	.
.	.	there	U	.	.	.	.
.	.	.	.	.	.	.	.
.	.	The	.	.	.	.	.
=68	=68	=68	=68	=68	=68	=68	=68
2iib	D:min/b3	first	.	189.184	.	voice	2d 2F 2a
.	.	se-	.	.	.	.	.
.	.	-mes	.	.	.	.	.
.	.	_	.	.	.	.	.
.	.	ter	.	.	.	.	.
.	.	of	.	.	.	.	.
2V7	G:7	_	.	190.585	.	voice	2G 2b 2dd 2ff
.	.	the	.	.	.	.	.
.	.	school	T	.	.	.	.
.	.	year	U	.	.	.	.
.	.	.	.	.	.	.	.
.	.	I	.	.	.	.	.
=69	=69	=69	=69	=69	=69	=69	=69
1I	C:maj	went	.	191.986	newline	voice	1C 1e 1g
.	.	to	.	.	.	.	.
.	.	a	.	.	.	.	.
.	.	gate	.	.	.	.	.
.	.	_	.	.	.	.	.
.	.	to	.	.	.	.	.
.	.	ask	.	.	.	.	.
.	.	where	(V	.	.	.	.
.	.	was	.	.	.	.	.
.	.	her	.	.	.	.	.
.	.	dorm	V)	.	.	.	.
.	.	_	.	.	.	.	.
.	.	.	.	.	.	.	.
.	.	this	.	.	.	.	.
=70	=70	=70	=70	=70	=70	=70	=70
1IV	F:maj	guy	.	194.799	.	voice	1F 1a 1cc
.	.	made	.	.	.	.	.
.	.	me	.	.	.	.	.
.	.	fill	.	.	.	.	.
.	.	_	.	.	.	.	.
.	.	out	.	.	.	.	.
.	.	.	.	.	.	.	.
.	.	a	.	.	.	.	.
.	.	vi-	(V	.	.	.	.
.	.	-si-	.	.	.	.	.
.	.	-tor's	.	.	.	.	.
.	.	form	V)	.	.	.	.
.	.	.	.	.	.	.	.
.	.	He	.	.	.	.	.
=71	=71	=71	=71	=71	=71	=71	=71
1iib	D:min/b3	told	.	197.613	.	voice	1d 1F 1a
.	.	me	.	.	.	.	.
.	.	where	.	.	.	.	.
.	.	it	.	.	.	.	.
.	.	was	.	.	.	.	.
.	.	.	.	.	.	.	.
.	.	and	.	.	.	.	.
.	.	I	.	.	.	.	.
.	.	was	.	.	.	.	.
.	.	on	.	.	.	.	.
.	.	my	.	.	.	.	.
.	.	way	W	.	.	.	.
.	.	.	.	.	.	.	.
.	.	to	.	.	.	.	.
=72	=72	=72	=72	=72	=72	=72	=72
2iib	D:min/b3	see	.	200.426	.	voice	2d 2F 2a
.	.	my	.	.	.	.	.
.	.	ba-	.	.	.	.	.
.	.	-by	.	.	.	.	.
.	.	doll,	.	.	.	.	.
.	.	I	.	.	.	.	.
.	.	was	.	.	.	.	.
2V7	G:7	hap-	.	201.833	.	voice	2G 2b 2dd 2ff
.	.	-py	.	.	.	.	.
.	.	to	.	.	.	.	.
.	.	say	W	.	.	.	.
.	.	_	.	.	.	.	.
.	.	.	.	.	.	.	.
.	.	I	.	.	.	.	.
.	.	ar-	.	.	.	.	.
=73	=73	=73	=73	=73	=73	=73	=73
1I	C:maj	-rived	.	203.239	newline	voice	1C 1e 1g
.	.	in	.	.	.	.	.
.	.	front	.	.	.	.	.
.	.	.	.	.	.	.	.
.	.	of	.	.	.	.	.
.	.	the	.	.	.	.	.
.	.	dor-	X	.	.	.	.
.	.	-mi-	.	.	.	.	.
.	.	-to	(X	.	.	.	.
.	.	_	.	.	.	.	.
.	.	ry	x)	.	.	.	.
.	.	.	.	.	.	.	.
.	.	yo, . . . . . =74 =74 =74 =74 =74 =74 =74 =74 =74 1IV F:maj 16d] _ . 206.061 . voice 1F 1a 1cc . . 8d could . . . . . . . 16c you . . . . . . . 16A tell . . . . . . . 16A me . . . . . . . 8A where . . . . . . . 8A is . . . . . . . 8A door (X . . . . . . 8A three x) . . . . . . 16r . . . . . . . . 16B They . . . . . =75 =75 =75 =75 =75 =75 =75 =75 =75 1iib D:min/b3 16c showed . 208.882 . voice 1d 1F 1a . . 16c me . . . . . . . 16c where . . . . . . . 16c it . . . . . . . 8A was . . . . . . . 8r . . . . . . . . 8A for . . . . . . . 16A the . . . . . . . [16A mo . . . . . . . 16A] _ . . . . . . . 16A ment Y . . . . . . 16r . . . . . . . . 16c I . . . . . =76 =76 =76 =76 =76 =76 =76 =76 =76 2iib D:min/b3 16B did- . 211.703 . voice 2d 2F 2a . . 16B -n't . . . . . . . 8B know . . . . . . . 16c I . . . . . . . 16A was . . . . . . . 16A in . . . . . . . 16G for . . . . . 2V7 G:7 16A such . 213.114 . voice 2G 2b 2dd 2ff . . 16A an . . . . . . . 16A e- . . . . . . . 16A -vent Y . . . . . . 8r . . . . . . . . 16d So, . . . . . . . 16d I . . . . . =77 =77 =77 =77 =77 =77 =77 =77 =77 1I C:maj 8d came . 214.524 newline voice 1C 1e 1g . . 16A to . . . . . . . 16A her . . . . . . . 8A room . . . . . . . 16r . . . . . . . . 16G and . . . . . . . 16A o- . . . . . . . 16A -pened . . . . . . . 16A the . . . . . . . [16A door Z . . . . . . 8A] _ . . . . . . . 8r . . . . . . =78 =78 =78 =78 =78 =78 =78 =78 =78 1IV F:maj 4e Oh! . 217.33 . voice 1F 1a 1cc . . 4d Snap! . . . . . . . 16A Guess . . . . . . . 16A what . . . . . . . 16B I . . . . . . . [16A saw Z . . . . . . 16A] _ . . . . . . . 8r . . . . . . . . 16d A . . . . . =79 =79 =79 =79 =79 =79 =79 =79 =79 1iib D:min/b3 16d fel- . 220.136 . voice 1d 1F 1a . . 16c -la . . . . . . . 8A tongue . . . . . . . 16A kis- . . . . . . . 16A -sing . . . . . . . 8A my . . . . . . . 16A girl . . . . . . . 16A in . . . . . . . 16c her . . . . . . . [16A mouth AA . . . . . . 16A] _ . . . . . . . 16r . . . . . . . . 16c I . . . . . . . 16B was . . . . . =80 =80 =80 =80 =80 =80 =80 =80 =80 2iib D:min/b3 16c so . 222.942 . voice 2d 2F 2a . . 8B in . . . . . . . [16c shock, . . . . . . . 16c] _ . . . . . . . 16B my . . . . . . . 8A heart . . . . . 2V7 G:7 8A went . 224.344 . voice 2G 2b 2dd 2ff . . 8A down . . . . . . . 8G south AA . . . . . . 16r . . . . . . . . 16B So . . . . . =81 =81 =81 =81 =81 =81 =81 =81 =81 1I C:maj 8d please, . 225.747 newline voice 1C 1e 1g . . 16B lis- . . . . . . . 16B -ten . . . . . . . 16B to . . . . . . . 16B the . . . . . . . 16B mes- . . . . . . . 16B -sage . . . . . . . 16A that . . . . . . . 8B I . . . . . . . [16A send J . . . . . . 16A] : . . . . . . . 16d don't . . . . . . . 16c e- . . . . . . . 16A -ver . . . . . =82 =82 =82 =82 =82 =82 =82 =82 =82 1IV F:maj 8A talk . 228.563 . voice 1F 1a 1cc . . 16A to . . . . . . . 16B a . . . . . . . 16A girl . . . . . . . 16A who . . . . . . . 16A says . . . . . . . 16A she . . . . . . . 8A just . . . . . . . 16A has . . . . . . . 16G a . . . . . . . 8A friend. J . . . . . . 16A (Has . . . . . . . 16G a . . . . . =83 =83 =83 =83 =83 =83 =83 =83 =83 1iib D:min/b3 8A friend, . 231.379 . voice 1d 1F 1a . . 16A has . . . . . . . 16G a . . . . . . . 8A friend, . . . . . . . 16A has . . . . . . . 16G a . . . . . . . 8A friend, . . . . . . . 16A has . . . . . . . 16G a . . . . . . . 8A friend, . . . . . . . 16A has . . . . . . . 16G a . . . . . =84 =84 =84 =84 =84 =84 =84 =84 =84 2iib D:min/b3 8A friend, . 234.195 . voice 2d 2F 2a . . 16A has . . . . . . . 16G a . . . . . . . 8A friend, . . . . . . . 16A has . . . . . . . 16G a . . . . . 2V7 G:7 2r . . 235.603 . voice 2G 2b 2dd 2ff =85 =85 =85 =85 =85 =85 =85 =85 =85 *>Label>>Fadeout *>Label>>Fadeout *>Label>>Fadeout *>Label>>Fadeout *>Label>>Fadeout *>Label>>Fadeout *>Label>>Fadeout *>Label>>Fadeout *>Label>>Fadeout 1I C:maj 1r . . 237.011 newline piano 1C 1e 1g 1r; N r; . . 238.957 . r r; 1r; N r; . . 241.371 . r r; *- *- *- *- *- *- *- *- *- !!!BillboardChartDate: 1990/02/10 !!!BillboardPeak: 9 !!!BillboardWeeksOnChart: 22 !!!COC: Biz Markie !!!ENC: Nathaniel Condit-Schultz !!!EST: Awating manual error checking and editing. !!!OTL: Just A Friend !!!RDF**harte: Chris Harte's syntax, used by MIREX !!!RDF**harmony: **recip + pitch class of root + harmonic quality !!!RDF**leadinstrument: original McGill primary instrumentation annotation !!!RDF**phrase: newline = linebreak in original McGill transcription !!!RDF**timestamp: McGill audio timestamp in seconds !!!RDT: 2017/01/12/ !!!SampleActualRank: 29 !!!SampleID#: 0827 !!!SampleTargetRank: 28 !!!MBID: c9c98bc9-b4c5-436f-bfce-532b21d13014
